X:125
T:The White Cockade
B:Terry "Cuz" Teahan "Sliabh Luachra on Parade" 1980
Z:Patrick Cavanagh
M:4/4
L:1/8
R:March
K:G
G/A/ | BB c/B/A/G/ dB Bg/e/ | dB B/A/G/A/ BA AG/A/ | 
BB c/B/A/G/ Bd g>a | b/a/g/f/ e/f/g/e/ dB B :| 
B/c/ | dB g/d/B/c/ dB BB/c/ | dB gf/g/ aA AG/A/ | 
BB c/B/A/G/ Bd g>a | b/a/g/f/ e/f/g/e/ dB B :|| 

